X:1
T:Come Josephine in my Flying Machine
M:3/4
L:1/4
K:C
 G3| G3| z A B| A2 G| G3| G3| z A B| A2 G| c3| ^G3| B A ^G| A3| d z2|\
 A z2| c B ^A| B =A _A| G3| G3| G A B| A2 G| G3| G3| z A B| A2 G| c3|\
 ^G3| B A ^G| A B c| d3| d3| d3-| d/2 z/2 z2| G E F| G A B| c B c|\
 e d c| B z d| F3| B z d| F3| F D E| F G A| B ^A B| d c B| A z c| E3|\
 A z c| E3| G z2| c z A| B d B| A2 _A| G z2| c z A| B d B| A2- _A|\
 G E F| G A B| c B c| e d c| B z A| G z e| c3-| c z2|
